X:1
T:Clori gentil dicea
T:Clori gentil dicea
T:Giovanni Maria Artusi
T:Source : Canzonette a 4 voci---Lobro primo---Venetia---G.Vincenti---1598. Editor : André Vierendeels (18/02/14).
T:Notes : Original clefs : G2, G2, C2, C3 Editorial accidentals above the staff
T:-natural
T:#
C:Giovanni Maria Artusi
%%score [ 1 2 3 4 ]
L:1/8
Q:1/4=86
M:4/4
K:F
V:1 treble nm="Canto 1" snm="C 1"
V:2 treble nm="Canto 2" snm="C 2"
V:3 treble nm="Alto" snm="A"
V:4 treble-8 nm="Tenor" snm="T"
V:1
 A4 B2 A2 | B6 B2 | ^c2 d4 c2 | d4 A4 | B2 B2 A2 A2 | B3 c d4 | z2 B2 c4 | z2 B2 B2 G2 | A2 B2 A4 | %9
w: Clo- ri gen-|til di-|ce- * *|a, men-|tr'il suo bel Da-|mon mo- rir,|mo- rir,|mo- rir, mo-|rir ve- de-|
 =B8 | z4 d4- | d2 d2 d2 g2- | g2 f2 e4 | ^f4 f4 | g2 d2 d2 d2 | d2 e2 ^f2 f2 | g6 _e2 | d4 d4 | %18
w: a,|Clo-|* ri gen- til|_ di- ce-|a, men-|tr'il suo bel Da-|mon mo- rir, mo-|rir, mo-|rir ve-|
 d8 | d4 d4 | _e6 e2 | d2 c2 d4 | d4 d4- | d2 Bc d4- | d2 cB c4- | c2 B2 A2 A2 | c4 B4 | d6 c2- | %28
w: de-|a, dol-|cis- si-|mo ben mi-|o, deh|_ non mo- rir|_ _ _ _|* se pri- a,|non mor'|an- ch'i|
 c2 B2 A4 | B8 | B6 AG | A6 G2 | ^F2 G4 F2 | z4 g4 | f4 _e4 | d8 | d8 |] %37
w: _ _ _|o,|deh non mo-|rir se|pri- * a|non|mor' an-|ch'i-|o.|
V:2
 z4 d4- | d2 d2 d2 g2- | g2 f2 e4 | ^f4 f4 | g2 d2 d2 d2 | d2 e2 ^f2 f2 | g6 _e2 | d4 d4 | d8 | %9
w: Clo-|* ri gen- til|_ di- ce-|a, men-|tr'il suo bel Da-|mon mo- rir, mo-|rir, mo-|rir ve-|de-|
 d8 | A4 B2 A2 |"^-natural" B6 B2 |"^#" ^c2 d4 c2 | d4 A4 | B2 B2 A2 A2 | B3 c d4 | z2 B2 c4 | %17
w: a,|Clo- ri gen-|til di-|ce- * *|a, men-|tr'il suo bel Da-|mon mo- rir,|mo- rir,|
 z2 B2 B2 G2 | A2 B2 A4 |"^b" =B4 B4 | c6 c2 | A2 G2 A4 | A8 | B6 AG | A6 G2 | ^F2 G4 F2 | z4 g4 | %27
w: mo- rir, mo-|rir ve- de-|a, dol-|cis- si-|mo ben mi-|o,|deh non mo-|rir se|pri- * a,|non|
 f4 _e4 | d8 | d4 d4- | d2 Bc d4- | d2 cB c4- | c2 B2 A2 A2 | c4 B4 | d6 c2- | c2 B2 A4 | =B8 |] %37
w: mor' an-|ch'i-|o, deh|_ non mo- rir|_ _ _ _|* se pri- a|non mor'|an- ch'i-||o.|
V:3
 D4 G2 ^F2 | G6 G2 | A8 | D8 | z8 | z2 G2 A4 | z2 G2 G4 | ^F2 G4 FE | D2 G,2 D4 | G,8 | D4 G2 ^F2 | %11
w: Clo- ri gen-|til di-|ce-|a,||mo- rir,|mo- rir|ve- de- * *||a,|Clo- ri gen-|
 G6 G2 | A8 | D8 | z8 | z2 G2 A4 | z2 G2 G4 | ^F2 G4 FE | D2 G,2 D4 | G,4 G4 | G6 G2 | ^F2 G2 F4 | %22
w: til di-|ce-|a,||mo- rir,|mo- rir|ve- de- * *||a, dol-|cis- si-|mo ben mi-|
 ^F8 | z8 | z8 | z4 A4 | G2 F2 G2 A2 | B4 G2 G2- | G2 ^FE F4 | G8 | z8 | z8 | z4 A4 | G2 F2 G2 A2 | %34
w: o,|||non|mor' _ _ _|_ an- ch'i-||o,|||non|mor' _ _ _|
 B4 G2 G2- | G2 ^FE F4 | G8 |] %37
w: _ an- ch'i-||o.|
V:4
 z8 | z8 | z8 | z4 d4 | G2 g2 ^f2 f2 | g4 z2 d2 | _e4 z2 c2 | d2 GA Bc de | ^f2 g4 f2 | g8 | z8 | %11
w: |||Men-|tr'il suo bel Da-|mon mo-|rir, mo-|rir ve- * * * * *|* de- *|a,||
 z8 | z8 | z4 d4 | G2 g2 ^f2 f2 | g4 z2 d2 | _e4 z2 c2 | d2 GA Bcde | ^f2 g4 f2 | g4 G4 | c6 c2 | %21
w: ||men-|tr'il suo bel Da-|mon mo-|rir, mo-|rir ve- * * * * *|* de- *|a, dol-|cis- si|
 d2 _e2 d4 | d8 | g6 de | f6 c2 | d4 d4 | _e8 | B4 c4 | d8 | G8 | g6 de | f6 c2 | d4 d4 | _e8 | %34
w: mo ben mi-|o,|deh non mo-|rir se|pri- a,|non|mor' an-|ch'i-|o,|deh non mo-|rir se|pri- a|non|
 B4 c4 | d8 | G8 |] %37
w: mor' an-|ch'i-|o.|

